X: 70
M:C|
L:1/8
Q:180
K:G
d2de|f2ef|ggf>e|1 d4:|2 d3 e/2f/2||
gfed|dcB>c|ddcB|A2G2||

